X:6790
T:The Foggy Dew
O:england
M:3/4
L:1/8
K:G
|:z2D2|G4G2|A2G2A2|B2d2B2|
A2G2A2|B2A2G2|E4F2|G6-|
G2:|
B2c2|d4e2|d2B2G2|d4e2|
d2B2G2|G2B2d2|e2d2B2|B6|
A4D2|G4G2|A2G2A2|B2d2B2|
A2G2A2|B2A2G2|E4F2|G6-|
G2
